images_sukapura_svg/cmd/32/spacing.svg

<svg viewBox="0 0 32 32" xmlns="http://www.w3.org/2000/svg" xmlns:xlink="http://www.w3.org/1999/xlink"><linearGradient id="a" gradientTransform="translate(-26.983051 -6.983051)" gradientUnits="userSpaceOnUse" x1="14" x2="13.79661" y1="22" y2="2.135593"><stop offset="0" stop-color="#0040dd"/><stop offset="1" stop-color="#0a84ff"/></linearGradient><linearGradient id="b" gradientTransform="matrix(-1 0 0 1 32.028484 -.0101)" gradientUnits="userSpaceOnUse" x1="25.028484" x2="25.028484" xlink:href="#a" y1="29.010099" y2="17.010099"/><linearGradient id="c" gradientTransform="translate(.000001 -.0101)" gradientUnits="userSpaceOnUse" x1="24.999998" x2="24.999998" xlink:href="#a" y1="29.010099" y2="17.010099"/><linearGradient id="d" gradientUnits="userSpaceOnUse" x1="15" x2="15" xlink:href="#a" y1="29" y2="17"/><path d="m14.384208 14.27424h-6.1975588l-1.2966524 3.725129h-2.8899966l6.0437188-15.9993729h2.494408l6.054708 15.9993729h-2.900986zm-5.4173696-2.24167h4.6371806l-2.31859-6.6371027z" fill="#69696e"/><path d="m22.879399 14.515989 4.065775-12.5159929h3.054825l-5.758016 15.9993729h-2.692202l-5.736039-15.9993729h3.043837z" fill="#69696e"/><g stroke-linecap="round" stroke-width="2"><path d="m29 23-25.985758-.0101" fill="none" stroke="url(#d)"/><g stroke-linejoin="round"><path d="m8.028484 17.9899-5 5 5 5z" fill="url(#b)" stroke="url(#b)"/><path d="m24.000001 17.9899 5 5-5 5z" fill="url(#c)" stroke="url(#c)"/></g></g></svg>

<?xml version="1.0" encoding="UTF-8" standalone="no"?>
<svg
   xmlns:dc="http://purl.org/dc/elements/1.1/"
   xmlns:cc="http://creativecommons.org/ns#"
   xmlns:rdf="http://www.w3.org/1999/02/22-rdf-syntax-ns#"
   xmlns:svg="http://www.w3.org/2000/svg"
   xmlns="http://www.w3.org/2000/svg"
   xmlns:xlink="http://www.w3.org/1999/xlink"
   xmlns:sodipodi="http://sodipodi.sourceforge.net/DTD/sodipodi-0.dtd"
   xmlns:inkscape="http://www.inkscape.org/namespaces/inkscape"
   viewBox="0 0 32 32"
   version="1.1"
   id="svg22"
   sodipodi:docname="spacing.svg"
   inkscape:version="0.92.3 (unknown)">
  <metadata
     id="metadata28">
    <rdf:RDF>
      <cc:Work
         rdf:about="">
        <dc:format>image/svg+xml</dc:format>
        <dc:type
           rdf:resource="http://purl.org/dc/dcmitype/StillImage" />
        <dc:title></dc:title>
      </cc:Work>
    </rdf:RDF>
  </metadata>
  <defs
     id="defs26">
    <linearGradient
       gradientTransform="translate(-26.983051,-6.9830508)"
       id="a"
       gradientUnits="userSpaceOnUse"
       x1="14"
       x2="13.79661"
       y1="22"
       y2="2.1355929">
      <stop
         offset="0"
         stop-color="#0040dd"
         id="stop2" />
      <stop
         offset="1"
         stop-color="#0a84ff"
         id="stop4" />
    </linearGradient>
    <linearGradient
       inkscape:collect="always"
       xlink:href="#a"
       id="linearGradient881"
       x1="25.028484"
       y1="29.010099"
       x2="25.028484"
       y2="17.010099"
       gradientUnits="userSpaceOnUse"
       gradientTransform="matrix(-1,0,0,1,32.028484,-0.0101)" />
    <linearGradient
       inkscape:collect="always"
       xlink:href="#a"
       id="linearGradient883"
       x1="24.999998"
       y1="29.010099"
       x2="24.999998"
       y2="17.010099"
       gradientUnits="userSpaceOnUse"
       gradientTransform="translate(1e-6,-0.0101)" />
    <linearGradient
       inkscape:collect="always"
       xlink:href="#a"
       id="linearGradient891"
       x1="25.028484"
       y1="29.010099"
       x2="25.028484"
       y2="17.010099"
       gradientUnits="userSpaceOnUse"
       gradientTransform="matrix(-1,0,0,1,32.028484,-0.0101)" />
    <linearGradient
       inkscape:collect="always"
       xlink:href="#a"
       id="linearGradient893"
       x1="24.999998"
       y1="29.010099"
       x2="24.999998"
       y2="17.010099"
       gradientUnits="userSpaceOnUse"
       gradientTransform="translate(1e-6,-0.0101)" />
    <linearGradient
       inkscape:collect="always"
       xlink:href="#a"
       id="linearGradient905"
       x1="15"
       y1="29"
       x2="15"
       y2="17"
       gradientUnits="userSpaceOnUse" />
  </defs>
  <sodipodi:namedview
     pagecolor="#ffffff"
     bordercolor="#666666"
     borderopacity="1"
     objecttolerance="10"
     gridtolerance="10"
     guidetolerance="10"
     inkscape:pageopacity="0"
     inkscape:pageshadow="2"
     inkscape:window-width="1366"
     inkscape:window-height="706"
     id="namedview24"
     showgrid="true"
     inkscape:zoom="11.313709"
     inkscape:cx="24.25029"
     inkscape:cy="15.678363"
     inkscape:window-x="0"
     inkscape:window-y="0"
     inkscape:window-maximized="1"
     inkscape:current-layer="svg22">
    <inkscape:grid
       type="xygrid"
       id="grid835"
       spacingx="0.5"
       spacingy="0.5"
       empspacing="2" />
  </sodipodi:namedview>
  <path
     inkscape:connector-curvature="0"
     id="path930"
     style="font-style:normal;font-variant:normal;font-weight:500;font-stretch:normal;font-size:medium;line-height:1.25;font-family:Roboto;-inkscape-font-specification:'Roboto Medium';letter-spacing:0px;word-spacing:0px;fill:#69696e;fill-opacity:1;stroke:none;stroke-width:0.56261528"
     d="M 14.384208,14.27424 H 8.1866492 L 6.8899968,17.999369 H 4.0000002 L 10.043719,1.9999961 h 2.494408 L 18.592835,17.999369 H 15.691849 Z M 8.9668384,12.03257 h 4.6371806 l -2.31859,-6.6371027 z" />
  <path
     inkscape:connector-curvature="0"
     id="path932"
     style="font-style:normal;font-variant:normal;font-weight:500;font-stretch:normal;font-size:medium;line-height:1.25;font-family:Roboto;-inkscape-font-specification:'Roboto Medium';letter-spacing:0px;word-spacing:0px;fill:#69696e;fill-opacity:1;stroke:none;stroke-width:0.56261528"
     d="M 22.879399,14.515989 26.945174,1.9999961 h 3.054825 L 24.241983,17.999369 H 21.549781 L 15.813742,1.9999961 h 3.043837 z" />
  <path
     style="fill:none;stroke:url(#linearGradient905);stroke-width:2;stroke-linecap:round"
     inkscape:connector-curvature="0"
     id="path10"
     d="M 29,23 3.014242,22.9899"
     sodipodi:nodetypes="cc" />
  <path
     inkscape:connector-curvature="0"
     style="fill:url(#linearGradient881);fill-opacity:1;stroke:url(#linearGradient891);stroke-width:2;stroke-linecap:round;stroke-linejoin:round"
     id="path12"
     d="m 8.028484,17.9899 -5,5 5,5 z" />
  <path
     inkscape:connector-curvature="0"
     style="fill:url(#linearGradient883);fill-opacity:1;stroke:url(#linearGradient893);stroke-width:2;stroke-linecap:round;stroke-linejoin:round"
     id="path18"
     d="m 24.000001,17.9899 5,5 -5,5 z" />
</svg>
